_inc/systems/logos/atari7800.svg

<?xml version="1.0" encoding="utf-8"?>
<svg version="1.0" id="Ebene_1" x="0px" y="0px" enable-background="new 0 0 466.5 167.3" viewBox="0 0 264 57" xmlns="http://www.w3.org/2000/svg">
  <path d="M 96.385 2.489 C 98.562 -0.303 103.157 -0.85 105.818 1.578 C 106.906 2.489 107.692 3.824 108.115 5.16 C 113.074 22.399 118.153 39.7 123.111 56.939 C 120.148 56.939 117.185 56.939 114.283 56.939 C 112.892 52.144 111.562 47.409 110.111 42.613 C 104.427 42.613 98.682 42.613 92.999 42.613 C 91.608 47.409 90.217 52.144 88.826 56.939 C 85.863 56.939 82.961 56.939 79.998 56.939 C 84.775 40.489 89.491 24.038 94.268 7.588 C 94.934 5.827 95.175 3.885 96.385 2.489 M 101.585 13.051 C 99.469 20.214 97.413 27.377 95.357 34.54 C 99.529 34.54 103.641 34.54 107.813 34.54 C 105.697 27.377 103.641 20.214 101.585 13.051 Z" id="path2" style="fill:#ffffff"/>
  <path d="M 158.485 2.853 C 159.996 0.607 163.02 -0.486 165.62 0.243 C 167.978 0.789 169.852 2.853 170.457 5.22 C 175.415 22.46 180.495 39.76 185.453 57 C 182.49 57 179.527 57 176.625 57 C 175.294 52.204 173.904 47.469 172.513 42.674 C 166.829 42.674 161.145 42.674 155.401 42.674 C 154.07 47.469 152.68 52.204 151.228 57 C 148.266 57 145.363 57 142.4 57 C 147.177 40.428 151.954 23.917 156.731 7.345 C 157.336 5.827 157.517 4.128 158.485 2.853 M 157.819 34.54 C 161.992 34.54 166.043 34.54 170.215 34.54 C 168.159 27.377 166.043 20.214 164.048 13.051 C 161.871 20.214 159.875 27.377 157.819 34.54 Z" id="path4" style="fill:#ffffff"/>
  <path d="M 116.46 0.182 C 127.102 0.182 137.805 0.182 148.447 0.182 C 148.447 3.096 148.447 6.01 148.447 8.863 C 144.517 8.863 140.586 8.863 136.656 8.863 C 136.656 24.888 136.656 40.914 136.656 57 C 133.874 57 131.032 57 128.251 57 C 128.251 40.974 128.251 24.949 128.251 8.863 C 124.321 8.863 120.39 8.863 116.46 8.863 C 116.46 5.888 116.46 3.035 116.46 0.182 Z" id="path6" style="fill:#ffffff"/>
  <path d="M 194.886 0.486 C 195.672 0.182 196.579 0.121 197.425 0.121 C 200.751 0.121 204.137 0.121 207.523 0.121 C 213.207 0.243 218.589 3.764 221.008 8.863 C 222.701 12.201 222.882 16.086 222.459 19.728 C 222.156 23.553 220.524 27.377 217.682 29.866 C 216.17 31.262 214.235 32.051 212.542 33.326 C 211.635 34.054 211.635 35.39 212.058 36.3 C 216.533 43.22 221.189 50.019 225.724 56.878 C 222.398 56.878 219.073 56.878 215.687 56.878 C 211.333 50.262 207.04 43.706 202.626 37.089 C 201.356 35.208 200.993 32.719 201.779 30.594 C 202.384 28.955 203.835 27.741 205.407 27.134 C 208.43 25.981 211.454 24.16 213.147 21.246 C 214.477 19.121 214.356 16.45 213.812 14.022 C 213.086 10.926 210.124 8.559 207.04 8.62 C 204.863 8.62 202.686 8.62 200.509 8.62 C 199.542 8.62 198.574 9.47 198.574 10.441 C 198.574 25.859 198.574 41.339 198.574 56.757 C 195.732 56.757 192.89 56.757 190.048 56.757 C 190.048 40.124 190.048 23.492 190.048 6.859 C 190.048 4.128 192.104 1.396 194.886 0.486 Z" id="path8" style="fill:#ffffff"/>
  <path d="M 230.199 0.182 C 233.162 0.182 236.185 0.182 239.148 0.182 C 239.148 19.121 239.148 38.061 239.148 57 C 236.185 57 233.162 57 230.199 57 C 230.199 38 230.199 19.061 230.199 0.182 Z" id="path10" style="fill:#ffffff"/>
  <path d="M 25.215 0 C 26.666 0 28.117 0 29.508 0 C 29.508 3.339 29.508 6.799 29.508 10.137 C 29.508 12.93 29.448 15.783 29.327 18.575 C 29.145 22.642 28.843 26.709 28.238 30.776 C 27.754 33.508 26.847 36.239 25.638 38.789 C 23.703 42.917 20.68 46.377 17.233 49.291 C 14.149 52.022 10.521 53.965 6.712 55.3 C 4.535 56.029 2.298 56.636 0 56.939 C 0 54.086 0 51.294 0 48.441 C 2.721 48.016 5.382 47.045 7.8 45.77 C 10.703 44.252 13.303 42.188 15.54 39.7 C 17.838 37.15 19.652 34.297 20.982 31.14 C 22.615 27.559 23.461 23.735 24.066 19.85 C 24.792 14.933 25.094 9.955 25.215 5.038 C 25.215 3.399 25.215 1.7 25.215 0 Z" id="path12" style="fill:#ffffff"/>
  <path d="M 31.201 0 C 33.862 0 36.462 0 39.122 0 C 39.122 19 39.122 37.939 39.122 56.878 C 36.462 56.878 33.862 56.878 31.201 56.878 C 31.141 50.869 31.201 44.738 31.201 38.728 C 31.201 25.859 31.201 12.99 31.201 0 Z" id="path14" style="fill:#ffffff"/>
  <path d="M 40.876 0 C 42.327 0 43.718 0 45.169 0 C 45.109 5.827 45.29 11.594 46.016 17.361 C 46.56 21.792 47.346 26.345 49.16 30.473 C 50.853 34.479 53.272 38.243 56.416 41.278 C 59.439 44.192 63.067 46.377 67.058 47.652 C 68.147 48.016 69.295 48.319 70.444 48.441 C 70.444 51.294 70.444 54.086 70.444 56.939 C 68.147 56.636 65.97 56.029 63.853 55.3 C 61.314 54.39 58.835 53.236 56.537 51.719 C 54.844 50.626 53.393 49.351 51.881 48.016 C 49.523 45.831 47.346 43.281 45.713 40.367 C 44.443 38.121 43.536 35.754 42.811 33.326 C 42.146 30.837 41.904 28.348 41.601 25.799 C 41.118 20.335 40.876 14.811 40.936 9.348 C 40.876 6.252 40.876 3.157 40.876 0 Z" id="path16" style="fill:#ffffff"/>
  <path d="M 25.215 0 C 25.215 1.7 25.215 3.339 25.215 5.038 C 25.094 10.016 24.792 14.933 24.066 19.85 C 23.461 23.674 22.615 27.559 20.982 31.14 C 19.591 34.236 17.838 37.15 15.54 39.7 C 13.363 42.128 10.763 44.252 7.8 45.77 C 5.321 47.105 2.721 48.016 0 48.441 C 0 51.294 0 54.086 0 56.939 C 2.298 56.636 4.535 56.029 6.712 55.3 C 10.521 53.965 14.21 51.961 17.233 49.291 C 20.619 46.377 23.703 42.917 25.638 38.789 C 26.787 36.239 27.754 33.569 28.238 30.776 C 28.903 26.77 29.145 22.703 29.327 18.636 C 29.448 15.843 29.508 12.99 29.508 10.198 C 29.508 6.859 29.508 3.399 29.508 0.061 C 28.057 0 26.606 0 25.215 0" id="path18" style="fill:#ffffff"/>
  <path d="M 31.201 0 C 31.201 12.93 31.201 25.859 31.201 38.789 C 31.201 44.799 31.201 50.93 31.201 56.939 C 33.862 56.878 36.462 56.939 39.122 56.939 C 39.122 37.939 39.122 18.939 39.122 0.061 C 36.462 0 33.862 0 31.201 0" id="path20" style="fill:#ffffff"/>
  <path d="M 40.876 0 C 40.876 3.096 40.876 6.192 40.876 9.288 C 40.815 14.811 40.997 20.275 41.541 25.738 C 41.843 28.287 42.085 30.837 42.75 33.265 C 43.476 35.693 44.383 38.121 45.653 40.307 C 47.285 43.16 49.402 45.709 51.82 47.955 C 53.272 49.291 54.783 50.565 56.476 51.658 C 58.774 53.176 61.253 54.329 63.793 55.239 C 65.909 55.968 68.147 56.575 70.384 56.878 C 70.384 54.025 70.384 51.233 70.384 48.38 C 69.235 48.198 68.086 47.894 66.998 47.591 C 63.067 46.316 59.379 44.07 56.355 41.217 C 53.211 38.243 50.792 34.479 49.099 30.412 C 47.346 26.224 46.56 21.732 45.955 17.3 C 45.29 11.655 45.109 5.827 45.169 0.061 C 43.718 0 42.267 0 40.876 0" id="path22" style="fill:#ffffff"/>
  <path d="M 256.187 33.038 C 255.51 31.988 254.465 31.247 253.296 31.247 C 250.466 31.247 249.174 34.212 249.174 36.99 C 249.174 39.769 250.466 42.734 253.296 42.734 C 254.527 42.734 255.572 42.055 256.187 40.943 C 256.864 42.487 258.094 43.351 259.632 43.351 C 262.462 43.351 263.938 40.141 263.938 36.929 C 263.938 33.779 262.462 30.506 259.632 30.506 C 258.156 30.691 256.925 31.555 256.187 33.038 Z M 254.403 37.114 C 254.403 37.794 253.911 38.411 253.358 38.411 C 252.804 38.411 252.312 37.856 252.312 37.114 C 252.312 36.435 252.804 35.817 253.358 35.817 C 253.973 35.756 254.403 36.373 254.403 37.114 Z M 258.033 37.114 C 258.033 36.311 258.525 35.693 259.202 35.693 C 259.817 35.693 260.309 36.373 260.309 37.114 C 260.309 37.917 259.817 38.534 259.202 38.534 C 258.525 38.473 258.033 37.856 258.033 37.114 Z" id="path41" style="fill:#ffffff;stroke-width:1.01737"/>
  <path d="M 251.573 17.167 C 249.974 18.34 249.174 20.131 249.174 22.23 C 249.174 24.33 250.036 26.06 251.573 27.295 C 252.866 28.283 254.711 28.839 256.618 28.839 C 260.309 28.839 264 26.801 264 22.23 C 264 17.66 260.247 15.623 256.618 15.623 C 254.711 15.623 252.927 16.179 251.573 17.167 Z M 259.632 22.169 C 259.632 23.775 257.602 23.96 256.618 23.96 C 255.634 23.96 253.604 23.775 253.604 22.169 C 253.604 20.563 255.634 20.378 256.618 20.378 C 257.602 20.44 259.632 20.625 259.632 22.169 Z" id="path43" style="fill:#ffffff;stroke-width:1.01737"/>
  <path d="M 251.573 1.604 C 249.974 2.777 249.174 4.569 249.174 6.668 C 249.174 8.768 250.036 10.497 251.573 11.732 C 252.866 12.72 254.711 13.275 256.618 13.275 C 260.309 13.275 264 11.238 264 6.668 C 264 2.159 260.247 0.06 256.618 0.06 C 254.711 0.122 252.927 0.678 251.573 1.604 Z M 259.632 6.668 C 259.632 8.274 257.602 8.459 256.618 8.459 C 255.634 8.459 253.604 8.274 253.604 6.668 C 253.604 5.062 255.634 4.877 256.618 4.877 C 257.602 4.877 259.632 5.062 259.632 6.668 Z" id="path45" style="fill:#ffffff;stroke-width:1.01737"/>
  <polygon points="263.938 55.456 263.938 50.207 249.359 43.969 249.359 57 253.911 57 253.911 50.824" id="polygon47" style="fill:#ffffff"/>
</svg>

<svg xmlns="http://www.w3.org/2000/svg" viewBox="0 0 264 57"><path d="M96.39 2.49c2.17-2.8 6.77-3.34 9.43-.91a8 8 0 0 1 2.3 3.58c4.95 17.24 10.03 34.54 15 51.78h-8.84c-1.39-4.8-2.72-9.53-4.17-14.33H93l-4.17 14.33H80c4.78-16.45 9.5-32.9 14.27-49.35.66-1.76.9-3.7 2.12-5.1m5.2 10.56q-3.17 10.75-6.23 21.49h12.45q-3.15-10.74-6.23-21.49m56.91-10.2a6.67 6.67 0 0 1 11.97 2.37c4.95 17.24 10.03 34.54 15 51.78h-8.84c-1.33-4.8-2.72-9.53-4.1-14.33H155.4A640 640 0 0 1 151.23 57h-8.83l14.33-49.65c.6-1.52.79-3.22 1.76-4.5m-.67 31.69h12.4c-2.06-7.16-4.18-14.33-6.17-21.49-2.18 7.16-4.18 14.33-6.23 21.49M116.46.18h31.99v8.68h-11.8V57h-8.4V8.86h-11.79zm78.43.31c.78-.3 1.69-.37 2.54-.37h10.1A15.6 15.6 0 0 1 221 8.86c1.7 3.34 1.87 7.23 1.45 10.87-.3 3.82-1.94 7.65-4.78 10.14-1.51 1.4-3.44 2.18-5.14 3.46-.9.72-.9 2.06-.48 2.97 4.47 6.92 9.13 13.72 13.66 20.58H215.7c-4.36-6.62-8.65-13.17-13.06-19.8a7.3 7.3 0 0 1-.85-6.49 6.2 6.2 0 0 1 3.63-3.46c3.02-1.15 6.04-2.97 7.74-5.88 1.33-2.13 1.2-4.8.66-7.23a7.1 7.1 0 0 0-6.77-5.4h-6.53c-.97 0-1.94.85-1.94 1.82v46.32h-8.52V6.86c0-2.73 2.05-5.46 4.84-6.37m35.3-.31h8.95V57h-8.95zM25.22 0h4.29v10.14c0 2.79-.06 5.64-.18 8.43a119 119 0 0 1-1.1 12.2 32 32 0 0 1-2.6 8.02c-1.93 4.13-4.95 7.59-8.4 10.5A31 31 0 0 1 6.71 55.3 36 36 0 0 1 0 56.94v-8.5a25 25 0 0 0 7.8-2.67c2.9-1.52 5.5-3.58 7.74-6.07q3.45-3.82 5.44-8.56c1.63-3.58 2.48-7.4 3.09-11.29.72-4.92 1.02-9.9 1.14-14.81zm5.98 0h7.92v56.88H31.2c-.06-6.01 0-12.14 0-18.15zm9.68 0h4.29c-.06 5.83.12 11.6.85 17.36.54 4.43 1.33 8.99 3.14 13.11 1.7 4 4.11 7.77 7.26 10.8a27 27 0 0 0 10.64 6.38c1.09.37 2.23.67 3.38.8v8.49c-2.3-.3-4.47-.91-6.59-1.64a34 34 0 0 1-7.31-3.58 39 39 0 0 1-4.66-3.7 32 32 0 0 1-6.17-7.65 34 34 0 0 1-2.9-7.04c-.66-2.5-.9-4.98-1.2-7.53-.5-5.46-.73-10.99-.67-16.45Q40.86 4.7 40.88 0" style="fill:#fff"/><path d="M25.22 0v5.04c-.13 4.98-.43 9.9-1.15 14.81-.6 3.82-1.46 7.7-3.09 11.29a33 33 0 0 1-5.44 8.56 27 27 0 0 1-7.74 6.07A24 24 0 0 1 0 48.44v8.5c2.3-.3 4.54-.91 6.71-1.64a32 32 0 0 0 10.52-6c3.39-2.92 6.47-6.38 8.4-10.51a34 34 0 0 0 2.6-8.01c.67-4.01.91-8.08 1.1-12.14.12-2.8.18-5.65.18-8.44V.06Q27.32 0 25.2 0m6 0v56.94c2.66-.06 5.26 0 7.92 0V.06C36.46 0 33.86 0 31.2 0m9.68 0v9.29c-.07 5.52.12 10.99.66 16.45.3 2.55.55 5.1 1.21 7.53a33 33 0 0 0 2.9 7.04 33 33 0 0 0 6.17 7.64 35 35 0 0 0 4.66 3.7 34 34 0 0 0 7.31 3.59c2.12.73 4.36 1.34 6.6 1.64v-8.5c-1.16-.18-2.3-.49-3.4-.79a28.5 28.5 0 0 1-10.63-6.37 31.5 31.5 0 0 1-7.26-10.8c-1.75-4.2-2.54-8.69-3.15-13.12-.66-5.65-.84-11.47-.78-17.24Q42.98 0 40.87 0" style="fill:#fff"/><path d="M256.19 33.04c-.68-1.05-1.72-1.8-2.9-1.8-2.82 0-4.12 2.97-4.12 5.75s1.3 5.74 4.13 5.74c1.23 0 2.27-.67 2.89-1.79.67 1.55 1.9 2.41 3.44 2.41 2.83 0 4.3-3.2 4.3-6.42 0-3.15-1.47-6.42-4.3-6.42a4.4 4.4 0 0 0-3.44 2.53m-1.79 4.07c0 .68-.49 1.3-1.04 1.3-.56 0-1.05-.55-1.05-1.3 0-.67.5-1.3 1.05-1.3.61-.05 1.04.56 1.04 1.3m3.63 0c0-.8.5-1.42 1.17-1.42.62 0 1.1.68 1.1 1.42 0 .8-.48 1.42-1.1 1.42-.68-.06-1.17-.67-1.17-1.42m-6.46-19.94a6 6 0 0 0-2.4 5.06c0 2.1.87 3.83 2.4 5.07a8.5 8.5 0 0 0 5.05 1.54c3.69 0 7.38-2.04 7.38-6.61s-3.75-6.6-7.38-6.6c-1.9 0-3.7.55-5.05 1.54m8.06 5c0 1.6-2.03 1.79-3.01 1.79-.99 0-3.02-.19-3.02-1.8 0-1.6 2.03-1.78 3.02-1.78.98.06 3.01.25 3.01 1.79M251.57 1.6a6 6 0 0 0-2.4 5.07c0 2.1.87 3.83 2.4 5.06a8.5 8.5 0 0 0 5.05 1.55c3.69 0 7.38-2.04 7.38-6.61 0-4.51-3.75-6.61-7.38-6.61-1.9.06-3.7.62-5.05 1.54m8.06 5.07c0 1.6-2.03 1.79-3.01 1.79-.99 0-3.02-.19-3.02-1.8 0-1.6 2.03-1.78 3.02-1.78.98 0 3.01.18 3.01 1.79" style="fill:#fff;stroke-width:1.01737"/><path d="M263.94 55.46v-5.25l-14.58-6.24V57h4.55v-6.18z" style="fill:#fff"/></svg>
